X: 1085
T: Gigue (A40)
N: page A40
N: heptatonic
C: Steve Waring
M: 6/8
L: 1/8
K: Am
E |:"Am" A2 B "F" cBA|"G" GAB "Am" A2E|A2 B "F" cBA|"G" d3 dcB|
"Am"A2 B "F" cBA|"G"GAB "Am"AE^F|"G"G^FG "Em" E2 B|[1 "Am" A3-A2 E:|[2 "Am" A6|:
"Am"eae "G"dgd|"F"c2 B "Am"cBA|eae "G"dgd|"F"c2 B A3::
"C" cde "F"cBA|"C"cde "F"cBA|"C"cde "F"cBA|"G"G2 B "Am" A3:|
